X: 22144
T: Kylebrack Rambler, The
R: reel
M: 4/4
K: Dmixolydian
D ~A,3 DA,=FA,|D ~A,3 CA,G,A,|D ~A,3 D3E|FGAF G2FG|
Addc dcAB|cGAc GEDC|DCA,G, A,CDE|1 =FAGE DE=FE:|2 =FAGE DE^FG||
A2GE FDFA|~d3c AGAB|c2Gc EcGc|cded cAGA|
defe dAAB|1 ^cAAG E (3AAA|G~E3 CDEG|cAGE DEFG:|2 ^cAAG ~E3(G|~G2)ED CDEG|cAGE DEFG:|
AD (3DDD A,DFA|d (3AAA dcAB|c2Bd cAGE|CcBd cAGE|
F (3DDD A,DFA|d (3AAA dcAB|c2Bd cAGE|1 CDEC DEFG:|2 CDEC D2=FE||

